docs/img/ico-twitter.svg

<?xml version="1.0" encoding="utf-8"?>
<svg width="25px" height="20px" viewbox="0 0 25 20" version="1.1" xmlns:xlink="http://www.w3.org/1999/xlink" xmlns="http://www.w3.org/2000/svg">
  <path d="M25 2.36692C24.0802 2.76923 23.0925 3.04077 22.054 3.16154C23.1128 2.53692 23.9263 1.54769 24.31 0.369231C23.3183 0.946923 22.2212 1.36846 21.0529 1.59385C20.1167 0.613077 18.7836 0 17.3075 0C14.4747 0 12.1796 2.26 12.1796 5.04846C12.1796 5.44385 12.2241 5.83 12.3117 6.19923C8.04889 5.98846 4.26982 3.97846 1.7395 0.923846C1.29876 1.67 1.04557 2.53692 1.04557 3.46231C1.04557 5.21462 1.95127 6.75923 3.32661 7.66538C2.48656 7.63846 1.69574 7.41231 1.00416 7.03385C1.00338 7.05462 1.00338 7.07692 1.00338 7.09692C1.00338 9.54385 2.77101 11.5846 5.11769 12.0485C4.68789 12.1631 4.23465 12.2254 3.76657 12.2254C3.43523 12.2254 3.11484 12.1938 2.80226 12.1354C3.45399 14.14 5.34899 15.6 7.59252 15.6415C5.83818 16.9954 3.62669 17.8038 1.22374 17.8038C0.809577 17.8038 0.400881 17.78 0 17.7331C2.26932 19.1638 4.9653 20 7.86212 20C17.2957 20 22.4556 12.3069 22.4556 5.63462C22.4556 5.41615 22.4494 5.19769 22.44 4.98077C23.4426 4.26923 24.3115 3.38077 25 2.36692Z" id="Path-Copy-2" fill="#1B1433" fill-opacity="0.11537389" fill-rule="evenodd" stroke="none" />
</svg>

<svg width="25" height="20" xmlns="http://www.w3.org/2000/svg"><path d="M25 2.367c-.92.402-1.907.674-2.946.795A5.083 5.083 0 0024.31.369c-.992.578-2.089 1-3.257 1.225A5.165 5.165 0 0017.308 0c-2.833 0-5.128 2.26-5.128 5.048 0 .396.044.782.132 1.151A14.642 14.642 0 011.74.924a4.974 4.974 0 00-.694 2.538 5.03 5.03 0 002.28 4.203 5.175 5.175 0 01-2.322-.631v.063c0 2.447 1.767 4.488 4.114 4.952a5.24 5.24 0 01-2.316.086c.652 2.005 2.547 3.465 4.79 3.507a10.392 10.392 0 01-6.368 2.162c-.414 0-.823-.024-1.224-.07A14.697 14.697 0 007.862 20c9.434 0 14.594-7.693 14.594-14.365 0-.219-.007-.437-.016-.654A10.317 10.317 0 0025 2.367z" fill="#1B1433" fill-opacity=".115" fill-rule="evenodd"/></svg>
